korla/scalable/actions/scalable/fcitx-ziranma.svg

<svg xmlns="http://www.w3.org/2000/svg" width="16" height="16" version="1.1">
 <defs>
  <style id="current-color-scheme" type="text/css">
   .ColorScheme-Text { color:#5c616c; } .ColorScheme-Highlight { color:#5294e2; }
  </style>
 </defs>
 <path style="fill:currentColor" class="ColorScheme-Text" d="M 2,0 C 0.892,0 0,0.8919999 0,2 v 12 c 0,1.108 0.892,2 2,2 h 12 c 1.108,0 2,-0.892 2,-2 V 2 C 16,0.8919999 15.108,0 14,0 Z M 6.679688,1.6152344 7.320312,2.3847656 5.3828125,4 H 13 V 14 H 12.5 4 3 V 4 H 3.8183594 Z M 4,5 v 2 h 6 V 8 H 4 v 2 h 6 v 1 H 4 v 2 h 8 V 5 Z"/>
</svg>

<svg xmlns="http://www.w3.org/2000/svg" width="16" height="16" version="1.1">
 <defs>
  <style id="current-color-scheme" type="text/css">
   .ColorScheme-Text { color:#444444; } .ColorScheme-Highlight { color:#5294e2; }
  </style>
 </defs>
 <path style="fill:currentColor" class="ColorScheme-Text" d="M 2,0 C 0.892,0 0,0.892 0,2 V 14 C 0,15.108 0.892,16 2,16 H 14 C 15.108,16 16,15.108 16,14 V 2 C 16,0.892 15.108,0 14,0 Z M 6.6797,1.6152 7.3203,2.3848 5.3828,4 H 13 V 14 H 3 V 4 H 3.8184 Z M 4,5 V 7 H 10 V 8 H 4 V 10 H 10 V 11 H 4 V 13 H 12 V 5 Z"/>
</svg>
